!!!OTL: Tiqi balujun
!!!ARE: Asia, China,ÿLiaoning Gaixian
!! III, 231
!!!SCT: C1738
!!!YEM: Copyright 1995, estate of Helmut Schaffrath.
**kern
*ICvox
*Ivox
*M2/4
*k[f#c#g#d#]
*E:
{8cc#
16cc#
16b
8cc#
16cc#
16ff#
=1
8.ee
16cc#
8b
8g#
=2
8f#
16ee
16ee
8ee
8g#
=3
8.f#
16e
4f#}
=4
{8b
16g#
16b
4cc#
=5
8ee
16g#
16f#
4e
=6
8c#
8g#
16g#
16b
8d#
=7
8.c#
16B
4c#}
=8
{8cc#
8b
8cc#
8ff#
=9
8.dd#
16cc#
8b
8g#
=10
8f#
8ee
8ee
8g#
=11
8.f#
16e
4f#}
=12
{8b
16g#
16b
8cc#
16dd#
16cc#
=13
8ee
16g#
16f#
8e
8e
=14
8c#
8g#
16g#
16b
8d#
=15
8.c#
16B
4c#}
=16
{8b
16g#
16b
4cc#
=17
8ee
16g#
16f#
4e
=18
8cc#
16b
16cc#
8ff#
8dd#
=19
[2cc#
=20
2cc#]}
==
!!!AGN: Xiaodiao, Xiubaxian diao
!!!AMT: simple duple
!!!AIN: vox
!!!EED: Helmut Schaffrath
!!!EEV: 1.0
*-
!!!ONB: Tied note syntax fixed by Craig Sapp, 2004/05/03/
